X:020 
T:Blacksmith's Fancy (reel),The
F:file ID: cre.5/020blacks_f
B:CRE5.193 (Rogha an Ghabha)
M:4/4
Q:180
R:reel
K:D
A2GE FDDF|G2 E=C GCEG|A2GE FDDF|DEFG Addc|
A2GE FDDF|G2E=C GCFE|DEFG Acde|1 fage fdec:|\
[2 fage fdd||
|: g|fddc dfaf|ecAG FDDg|fddc dfaf|efga fddg|
fddc dfaf|ecAG FGEF|DEFG Adde|1 fage fdd:|\
[2 fage fdec||"last time" d8||

%%%

